docs/assets/satchel-black.svg

<svg width="2000" height="501" viewBox="0 0 2000 501" fill="none" xmlns="http://www.w3.org/2000/svg">
<path d="M1221 0V304C1205 330 1184 360 1158 391C1145 405 1130 416 1113 425C1097.05 432.77 1079.65 437.138 1061.92 437.826C1044.19 438.515 1026.51 435.509 1010 429C981.572 416.355 959.289 392.993 948 364C935.689 332.838 935.689 298.162 948 267C954 252 962 239 972 228C983 217 995 208 1009 202C1023 196 1038 193 1055 193C1077 193 1096 197 1110 206C1126 216 1141 227 1154 241L1160 247L1206 200L1200 194C1192 185 1183 177 1173 170C1152.34 153.236 1128.01 141.586 1102 136C1069.23 129.169 1035.3 130.197 1003 139H769V37H700V139H537C497.843 131.742 457.575 133.107 419 143C399 147 379 154 359 163L352 166L373 223L382 219C414.055 204.265 448.738 196.104 484 195C515 195 538 203 554 217C570 230 579 250 579 279V280C546.557 272.287 513.346 268.261 480 268C458 268 437 270 418 275C399 280 382 287 368 297L359 304C353 292 344 281 332 272C306 250 266 234 213 223C187 218 166 212 150 207C134 201 122 195 114 189C105 182 100 175 97 168C90.4296 151.219 90.7893 132.516 98 116C102 108 108 102 116 96C124 90 133 85 145 81C179.893 73.397 216.2 75.4717 250 87C271 95 293 107 314 124L321 129L362 76L355 71C322.363 45.0842 284.073 27.2312 243.241 18.8911C202.409 10.5509 160.186 11.9587 120 23C101 29 84 39 69 51C54.2224 62.2282 42.2758 76.7572 34.115 93.4261C25.9542 110.095 21.8054 128.442 22 147C22 166 26 184 32 199C39 215 50 228 64 239C77 250 95 259 115 267C136 275 160 281 187 287C211 292 231 297 246 303C262 308 273 314 281 320C289 327 295 333 298 341C301 348 302 356 302 366C302 387 294 403 277 416C260 429 236 436 206 436C177.051 436.881 148.236 431.735 121.381 420.89C94.5261 410.045 70.2184 393.737 50 373L44 368L0 418L6 424C35 449 65 468 97 481H98C153.638 500.557 213.795 503.339 271 489C297.866 480.896 322.049 465.696 341 445C348 455 357 464 367 472C381 481 395 488 411 493H412C455.36 504.839 501.54 500.576 542 481C556 473 568 464 579 454V492H645V278C645 247 639 221 627 200H700V395C700 412 703 428 708 441C714 455 721 466 731 474V475C741 483 752 489 766 493C790.821 499.898 817.006 500.242 842 494C853 492 864 488 873 483L878 480V419L866 425C851.426 432.338 835.317 436.108 819 436C803 436 791 432 782 425C774 419 769 408 769 388V200H910C882.265 235.669 868.226 280.094 870.428 325.223C872.629 370.352 890.925 413.2 922 446C939 463 959 476 981 486C1006.62 496.055 1034.01 500.797 1061.51 499.937C1089.02 499.077 1116.06 492.635 1141 481C1164 469 1198 444 1218 413L1221 407V492H1290V291C1290 276 1292 263 1296 251C1301 239 1308 229 1317 221C1325 212 1335 205 1347 201C1359 196 1372 194 1385 194C1415 194 1436 202 1450 218C1465 235 1473 257 1473 287V492H1542V275C1542 254 1538 235 1532 217C1525 200 1516 184 1504 172C1492 159 1477 149 1459 142C1442 135 1422 132 1400 132C1379.11 131.019 1358.29 134.939 1339.19 143.448C1320.09 151.956 1303.24 164.816 1290 181V0H1221ZM1931 0V326L1928 332C1917 350 1890 373 1864 391C1838 410 1811 424 1803 427H1802L1801 428C1786 436 1767 440 1744 440C1716.27 440.292 1689.33 430.723 1668 413C1647.56 394.529 1634.43 369.334 1631 342H1904L1905 335L1906 326V318C1906 293 1902 269 1895 246C1887 223 1876 203 1861 187C1845.15 169.364 1825.7 155.33 1803.96 145.843C1782.23 136.356 1758.71 131.635 1735 132C1711.39 131.7 1687.98 136.35 1666.28 145.651C1644.58 154.952 1625.06 168.697 1609 186C1594 202 1582 222 1573 244C1554.98 291.477 1555.7 344.031 1575 391C1584 413 1598 433 1614 449V450C1648.49 482.753 1694.44 500.7 1742 500C1776 500 1805 494 1829 482C1844 474 1893 449 1931 417V492H2000V0H1931ZM1734 191C1751 191 1764 194 1776 199V200C1789 205 1799 213 1807 222C1822.86 241.007 1832.62 264.358 1835 289H1631C1633 276 1636 265 1641 255C1651.8 230.53 1670.94 210.687 1695 199C1707 193 1720 191 1734 191ZM486 322C507 322 525 323 541 326L579 334V360C579.056 371.62 576.258 383.077 570.853 393.363C565.448 403.65 557.601 412.453 548 419C539 426 527 432 514 437C489.952 444.246 464.405 444.936 440 439C431 436 423 432 415 427C408 422 403 415 398 408C395 401 393 393 393 384C393 364 400 350 415 339C431 328 454 322 486 322Z" fill="black" fill-opacity="0.87"/>
</svg>

<svg xmlns="http://www.w3.org/2000/svg" fill="none" viewBox="0 0 2000 501"><path fill="#000" fill-opacity=".9" d="M1221 0v304c-16 26-37 56-63 87-13 14-28 25-45 34a128 128 0 0 1-103 4c-28-13-51-36-62-65a132 132 0 0 1 24-136c11-11 23-20 37-26s29-9 46-9c22 0 41 4 55 13 16 10 31 21 44 35l6 6 46-47-6-6c-8-9-17-17-27-24-21-17-45-28-71-34-33-7-67-6-99 3H769V37h-69v102H537c-39-7-79-6-118 4-20 4-40 11-60 20l-7 3 21 57 9-4c32-15 67-23 102-24 31 0 54 8 70 22 16 13 25 33 25 62v1c-32-8-66-12-99-12-22 0-43 2-62 7s-36 12-50 22l-9 7c-6-12-15-23-27-32-26-22-66-38-119-49-26-5-47-11-63-16-16-6-28-12-36-18-9-7-14-14-17-21-7-17-6-35 1-52 4-8 10-14 18-20s17-11 29-15a196 196 0 0 1 169 43l7 5 41-53-7-5a265 265 0 0 0-235-48c-19 6-36 16-51 28a119 119 0 0 0-47 96c0 19 4 37 10 52 7 16 18 29 32 40 13 11 31 20 51 28 21 8 45 14 72 20 24 5 44 10 59 16 16 5 27 11 35 17 8 7 14 13 17 21 3 7 4 15 4 25 0 21-8 37-25 50s-41 20-71 20a209 209 0 0 1-156-63l-6-5-44 50 6 6c29 25 59 44 91 57h1c56 20 116 22 173 8 27-8 51-23 70-44 7 10 16 19 26 27 14 9 28 16 44 21h1c43 12 90 8 130-12 14-8 26-17 37-27v38h66V278c0-31-6-57-18-78h73v195c0 17 3 33 8 46 6 14 13 25 23 33v1c10 8 21 14 35 18a149 149 0 0 0 107-10l5-3v-61l-12 6c-15 7-31 11-47 11s-28-4-37-11c-8-6-13-17-13-37V200h141a189 189 0 0 0 12 246c17 17 37 30 59 40a203 203 0 0 0 160-5c23-12 57-37 77-68l3-6v85h69V291c0-15 2-28 6-40 5-12 12-22 21-30 8-9 18-16 30-20 12-5 25-7 38-7 30 0 51 8 65 24 15 17 23 39 23 69v205h69V275c0-21-4-40-10-58-7-17-16-33-28-45-12-13-27-23-45-30-17-7-37-10-59-10a134 134 0 0 0-110 49V0h-69Zm710 0v326l-3 6c-11 18-38 41-64 59-26 19-53 33-61 36h-1l-1 1c-15 8-34 12-57 12-28 0-55-9-76-27-20-18-34-44-37-71h273l1-7 1-9v-8c0-25-4-49-11-72a163 163 0 0 0-91-100c-22-10-45-14-69-14a169 169 0 0 0-162 112c-18 47-17 100 2 147 9 22 23 42 39 58v1c34 33 80 51 128 50 34 0 63-6 87-18 15-8 64-33 102-65v75h69V0h-69Zm-197 191c17 0 30 3 42 8v1c13 5 23 13 31 22 16 19 26 42 28 67h-204a117 117 0 0 1 64-90c12-6 25-8 39-8ZM486 322c21 0 39 1 55 4l38 8v26a71 71 0 0 1-31 59c-9 7-21 13-34 18-24 7-50 8-74 2-9-3-17-7-25-12-7-5-12-12-17-19-3-7-5-15-5-24 0-20 7-34 22-45 16-11 39-17 71-17Z"/></svg>
